usr/share/icons/biglinux-icons-material/scalable/apps/thunar.svg

<?xml version="1.0" encoding="UTF-8" standalone="no"?>
<svg
   width="24"
   height="24"
   viewBox="0 0 6.349875 6.349875"
   version="1.1"
   id="svg46231"
   sodipodi:docname="thunar.svg"
   xml:space="preserve"
   inkscape:version="1.2.2 (b0a8486541, 2022-12-01)"
   xmlns:inkscape="http://www.inkscape.org/namespaces/inkscape"
   xmlns:sodipodi="http://sodipodi.sourceforge.net/DTD/sodipodi-0.dtd"
   xmlns="http://www.w3.org/2000/svg"
   xmlns:svg="http://www.w3.org/2000/svg"><defs
     id="defs46235"><linearGradient
       id="paint0_linear_201_78"
       x1="23"
       y1="0.99999899"
       x2="1"
       y2="12"
       gradientUnits="userSpaceOnUse"><stop
         stop-color="#5361CB"
         id="stop46368" /><stop
         offset="1"
         stop-color="#2F3B9D"
         id="stop46370" /></linearGradient><linearGradient
       id="paint1_linear_201_78"
       x1="21"
       y1="4"
       x2="3"
       y2="4"
       gradientUnits="userSpaceOnUse"><stop
         stop-opacity="0.5"
         id="stop46373" /><stop
         offset="0.890123"
         id="stop46375" /><stop
         offset="1"
         stop-opacity="0"
         id="stop46377" /></linearGradient><linearGradient
       id="paint2_linear_201_78"
       x1="12"
       y1="3"
       x2="11.5"
       y2="8"
       gradientUnits="userSpaceOnUse"><stop
         stop-color="#DDDDDD"
         id="stop46380" /><stop
         offset="1"
         stop-color="#CCCCCC"
         stop-opacity="0"
         id="stop46382" /></linearGradient><linearGradient
       id="paint3_linear_201_78"
       x1="23"
       y1="9"
       x2="1.01236"
       y2="9.52141"
       gradientUnits="userSpaceOnUse"><stop
         stop-opacity="0.5"
         id="stop46385" /><stop
         offset="1"
         id="stop46387" /></linearGradient><linearGradient
       id="paint4_linear_201_78"
       x1="23"
       y1="5.4000001"
       x2="1.42949"
       y2="23.511499"
       gradientUnits="userSpaceOnUse"><stop
         stop-color="#6C7AD8"
         id="stop46390" /><stop
         offset="1"
         stop-color="#273182"
         id="stop46392" /></linearGradient><linearGradient
       id="paint5_linear_201_78"
       x1="15"
       y1="5.5"
       x2="5.5"
       y2="19.5"
       gradientUnits="userSpaceOnUse"><stop
         stop-color="#97A5FF"
         id="stop46395" /><stop
         offset="1"
         stop-color="#141E6F"
         id="stop46397" /></linearGradient></defs><sodipodi:namedview
     id="namedview46233"
     pagecolor="#ffffff"
     bordercolor="#000000"
     borderopacity="0.25"
     inkscape:showpageshadow="2"
     inkscape:pageopacity="0.0"
     inkscape:pagecheckerboard="0"
     inkscape:deskcolor="#d1d1d1"
     showgrid="false"
     inkscape:zoom="4.8282135"
     inkscape:cx="-39.766261"
     inkscape:cy="23.611218"
     inkscape:window-width="2560"
     inkscape:window-height="998"
     inkscape:window-x="1680"
     inkscape:window-y="0"
     inkscape:window-maximized="1"
     inkscape:current-layer="svg46231" /><g
     style="fill:none"
     id="g46432"
     transform="scale(0.26457812)"><rect
       opacity="0.8125"
       x="1"
       y="1"
       width="22"
       height="22"
       rx="6.5999999"
       fill="url(#paint0_linear_201_78)"
       id="rect46354"
       style="fill:url(#paint0_linear_201_78)" /><rect
       opacity="0.125"
       x="3"
       y="2.25"
       width="18"
       height="18"
       rx="4.4000001"
       fill="url(#paint1_linear_201_78)"
       fill-opacity="0.875"
       id="rect46356"
       style="fill:url(#paint1_linear_201_78)" /><rect
       x="3.25"
       y="3.25"
       width="17.5"
       height="17.5"
       rx="4.1500001"
       fill="#cccccc"
       stroke="url(#paint2_linear_201_78)"
       stroke-width="0.5"
       id="rect46358"
       style="stroke:url(#paint2_linear_201_78)" /><path
       opacity="0.125"
       d="M 1,7.50781 C 1,5.84664 2.34664,4.5 4.00781,4.5 h 4.18267 c 1.07452,0 2.11632,0.36994 2.95012,1.04762 v 0 c 0.8339,0.67768 1.8756,1.04762 2.9502,1.04762 h 5.9014 C 21.6534,6.59524 23,7.94188 23,9.60305 V 15.5 c 0,3.6451 -2.9549,6.6 -6.6,6.6 H 7.6 C 3.95492,22.1 1,19.1451 1,15.5 Z"
       fill="url(#paint3_linear_201_78)"
       fill-opacity="0.875"
       id="path46360"
       style="fill:url(#paint3_linear_201_78)" /><g
       opacity="0.875"
       id="g46366"><path
         d="M 1,8.40781 C 1,6.74664 2.34664,5.4 4.00781,5.4 h 4.18267 c 1.07452,0 2.11632,0.36994 2.95012,1.04762 v 0 c 0.8339,0.67768 1.8756,1.04762 2.9502,1.04762 h 5.9014 C 21.6534,7.49524 23,8.84188 23,10.5031 V 16.4 C 23,20.0451 20.0451,23 16.4,23 H 7.6 C 3.95492,23 1,20.0451 1,16.4 Z"
         fill="url(#paint4_linear_201_78)"
         id="path46362"
         style="fill:url(#paint4_linear_201_78)" /><path
         d="M 22.625,10.5031 V 16.4 c 0,3.438 -2.787,6.225 -6.225,6.225 H 7.6 C 4.16203,22.625 1.375,19.838 1.375,16.4 V 8.40781 C 1.375,6.95375 2.55375,5.775 4.00781,5.775 h 4.18267 c 0.98838,0 1.94662,0.34028 2.71362,0.96363 0.9007,0.73201 2.026,1.13161 3.1867,1.13161 h 5.9014 c 1.454,0 2.6328,1.17875 2.6328,2.63286 z"
         stroke="url(#paint5_linear_201_78)"
         stroke-opacity="0.375"
         stroke-width="0.75"
         stroke-linejoin="round"
         id="path46364"
         style="stroke:url(#paint5_linear_201_78)" /></g></g><path
     d="m 3.1754017,2.6242904 a 0.12209429,0.12209429 0 0 0 -0.086812,0.036211 l -1.1294882,1.129024 a 0.12302276,0.12302276 0 1 0 0.1740888,0.1736245 l 0.059422,-0.059422 V 4.9074072 H 2.4386579 V 3.6586101 L 3.1749375,2.9204735 3.9116813,3.6576816 V 4.9064787 H 4.1577269 V 3.9037271 l 0.058958,0.058958 A 0.12302276,0.12302276 0 1 0 4.3907737,3.7890606 L 3.262214,2.6605009 a 0.12209429,0.12209429 0 0 0 -0.086812,-0.036211 z m 0,1.4233502 A 0.24511704,0.24511704 0 0 0 2.9293562,4.2932218 V 4.9074072 H 3.420983 V 4.2932218 A 0.24511704,0.24511704 0 0 0 3.1749375,4.0471763 Z"
     opacity="0.15"
     style="stroke-width:0.464237;paint-order:stroke fill markers;fill:#e6e6e6;opacity:1"
     id="path46434" /></svg>

<svg xmlns="http://www.w3.org/2000/svg" xml:space="preserve" width="24" height="24" viewBox="0 0 6.35 6.35"><defs><linearGradient id="a" x1="23" x2="1" y1="1" y2="12" gradientUnits="userSpaceOnUse"><stop stop-color="#5361CB"/><stop offset="1" stop-color="#2F3B9D"/></linearGradient><linearGradient id="b" x1="21" x2="3" y1="4" y2="4" gradientUnits="userSpaceOnUse"><stop stop-opacity=".5"/><stop offset=".89"/><stop offset="1" stop-opacity="0"/></linearGradient><linearGradient id="c" x1="12" x2="11.5" y1="3" y2="8" gradientUnits="userSpaceOnUse"><stop stop-color="#DDD"/><stop offset="1" stop-color="#CCC" stop-opacity="0"/></linearGradient><linearGradient id="d" x1="23" x2="1.012" y1="9" y2="9.521" gradientUnits="userSpaceOnUse"><stop stop-opacity=".5"/><stop offset="1"/></linearGradient><linearGradient id="e" x1="23" x2="1.429" y1="5.4" y2="23.511" gradientUnits="userSpaceOnUse"><stop stop-color="#6C7AD8"/><stop offset="1" stop-color="#273182"/></linearGradient><linearGradient id="f" x1="15" x2="5.5" y1="5.5" y2="19.5" gradientUnits="userSpaceOnUse"><stop stop-color="#97A5FF"/><stop offset="1" stop-color="#141E6F"/></linearGradient></defs><g style="fill:none" transform="scale(.26458)"><rect width="22" height="22" x="1" y="1" fill="url(#a)" opacity=".813" rx="6.6" style="fill:url(#a)"/><rect width="18" height="18" x="3" y="2.25" fill="url(#b)" fill-opacity=".875" opacity=".125" rx="4.4" style="fill:url(#b)"/><rect width="17.5" height="17.5" x="3.25" y="3.25" fill="#ccc" stroke="url(#c)" stroke-width=".5" rx="4.15" style="stroke:url(#c)"/><path fill="url(#d)" fill-opacity=".875" d="M1 7.508A3.008 3.008 0 0 1 4.008 4.5H8.19c1.075 0 2.117.37 2.95 1.048a4.678 4.678 0 0 0 2.95 1.047h5.902A3.008 3.008 0 0 1 23 9.603V15.5a6.6 6.6 0 0 1-6.6 6.6H7.6A6.6 6.6 0 0 1 1 15.5Z" opacity=".125" style="fill:url(#d)"/><g opacity=".875"><path fill="url(#e)" d="M1 8.408A3.008 3.008 0 0 1 4.008 5.4H8.19c1.075 0 2.117.37 2.95 1.048a4.678 4.678 0 0 0 2.95 1.047h5.902A3.008 3.008 0 0 1 23 10.503V16.4a6.6 6.6 0 0 1-6.6 6.6H7.6A6.6 6.6 0 0 1 1 16.4Z" style="fill:url(#e)"/><path stroke="url(#f)" stroke-linejoin="round" stroke-opacity=".375" stroke-width=".75" d="M22.625 10.503V16.4a6.225 6.225 0 0 1-6.225 6.225H7.6A6.225 6.225 0 0 1 1.375 16.4V8.408a2.633 2.633 0 0 1 2.633-2.633H8.19c.989 0 1.947.34 2.714.964a5.053 5.053 0 0 0 3.187 1.131h5.901a2.633 2.633 0 0 1 2.633 2.633z" style="stroke:url(#f)"/></g></g><path d="M3.175 2.624a.122.122 0 0 0-.086.037L1.959 3.79a.123.123 0 1 0 .174.173l.06-.06v1.004h.246V3.66l.736-.739.737.738v1.248h.246V3.904l.059.059a.123.123 0 1 0 .174-.174L3.262 2.661a.122.122 0 0 0-.087-.037zm0 1.424a.245.245 0 0 0-.246.245v.614h.492v-.614a.245.245 0 0 0-.246-.246Z" opacity=".15" style="stroke-width:.464237;paint-order:stroke fill markers;fill:#e6e6e6;opacity:1"/></svg>
